src/icons/svgs/24/plus.svg

<svg width="24" height="24" viewBox="0 0 24 24" fill="none" xmlns="http://www.w3.org/2000/svg">
<path d="M21 11.9996C21 12.575 20.537 13.038 19.9615 13.038H13.0385V19.9611C13.0385 20.5344 12.5733 21 12 21C11.4267 21 10.9615 20.5366 10.9615 19.9611V13.038H4.03846C3.46514 13.038 3 12.5733 3 12C3 11.4284 3.46514 10.9611 4.03846 10.9611H10.9615V4.03803C10.9615 3.46471 11.4267 3 12 3C12.5733 3 13.0385 3.46471 13.0385 4.03803V10.9611H19.9615C20.537 10.9611 21 11.4284 21 11.9996Z" fill="black"/>
</svg>

<svg width="24" height="24" viewBox="0 0 24 24" xmlns="http://www.w3.org/2000/svg">
    <path d="M21 12c0 .575-.463 1.038-1.038 1.038h-6.923v6.923a1.04 1.04 0 0 1-2.078 0v-6.923H4.038a1.038 1.038 0 1 1 0-2.077h6.923V4.038a1.038 1.038 0 0 1 2.078 0v6.923h6.923c.575 0 1.038.467 1.038 1.039Z"/>
</svg>
